X:1
T:In the Garden
T:Text: C. Austin Miles (1868-1946); para. John 20:1-18 Tune: C. Austin Miles (1868-1946)
T:8 9 10 7 Refrain GARDEN www.hymnary.org/text/i_come_to_the_garden_alone
T:In the Garden
T:This hymn is in the public domain.  You may freely use this score for personal and congregational worship.  If you reproduce the score, please credit Hymnary.org as the source. 
T:This hymn is in the public domain.  You may freely use this score for personal and congregational worship.  If you reproduce the score, please credit Hymnary.org as the source. 
T:This hymn is in the public domain.  You may freely use this score for personal and congregational worship.  If you reproduce the score, please credit Hymnary.org as the source. 
Z:This hymn is in the public domain.  You may freely use this score for personal and congregational worship.  If you reproduce the score, please credit Hymnary.org as the source.
%%score ( 1 2 ) ( 3 4 )
L:1/8
M:6/8
K:Ab
V:1 treble nm="Piano" snm="Pno."
V:2 treble 
V:3 bass nm="Piano" snm="Pno."
V:4 bass 
V:1
 [CE] | [CE][A,C][B,D] [CE][EA][EB] | [Ec]3- cBA | [FA]2 [FA] [FB][FA][DF] | %4
w: 3~I’d|stay in the gar- den with|him _ though the|night a- round me be|
w: 1~I|come to the gar- den a-|lone, _ while the|dew is still on the|
w: 2~He|speaks, and the sound of his|voice _ is so|sweet the birds hush their|
 [CA]3 [CE]2 [DG]/[DA]/ | [DB]2 [DB] [DG]2 [DF]/[DG]/ | [EA]2 [EB] [Ec]2 [Ec] | %7
w: fal- ling, but he|bids me go; through the|voice of woe his|
w: ro- ses; and the|voice I hear, all- ing|on my ear, the|
w: sing- ing, and the|me- lo- dy that he|gave to me with-|
 [=DB]2 [Dc] [DB]2 [DA] | (G2 A) !fermata![GB] ||"^Refrain" !fermata![Ec][DB] | %10
w: voice to me is|cal- * ling.|And he|
w: Son of God dis-|clo- * ses.||
w: in my heart is|ring- * ing.||
 [CA]2 [CA] [CA][CG][CF] | [DG]2 [DG] [DG]2 E/E/ | [Fd]2 [Fd] [Fd][Ec][=D=B] | %13
w: walks with me, and he|talks with me, and he|tells me I am his|
w: |||
w: |||
 [Ec]3- [Ec]2 [CA]/[DB]/ | [Ec]2 [Ec] [=EB][EB][EG] | [FA]2 A [FA]2 [DF] | %16
w: own, _ and the|joy we share, as we|tar- ry there, none|
w: |||
w: |||
 [CE]<[CA][CA] [DG]<[DB]-[DB] | [CA]3- [CA]2 |] %18
w: o- ther has e- ver _|known. *|
w: ||
w: ||
V:2
 x | x6 | x3 EE_G | x6 | x6 | x6 | x6 | x6 | E3 x || x2 | x6 | x5 D/D/ | x6 | x6 | x6 | x2 _G x3 | %16
 x6 | x5 |] %18
V:3
 [A,,A,] | [A,,A,][A,,E,][A,,E,] [A,,A,][C,A,][E,G,] | [A,,A,]3- [A,,A,][B,,G,][C,A,] | %3
 [D,A,]2 [D,A,] [D,D][D,D][D,A,] | [A,,A,]3 [A,,A,]2 B,/F,/ | %5
 [E,G,]2 [E,G,] [E,B,]2 [E,A,]/[D,B,]/ | [C,A,]2 [E,G,] [A,,A,]2 [A,,A,] | %7
 [B,,A,]2 [B,,A,] [B,,G,]2 [B,,B,] | (B,2 C) !fermata![E,D] || !fermata![E,G,][E,G,] | %10
 [A,,E,]2 [A,,E,] [A,,E,][A,,E,][A,,E,] | [B,,E,]2 [B,,E,] [E,B,]2 [E,G,]/[E,G,]/ | %12
 [E,G,]2 [E,G,] [E,G,][E,G,][E,G,] | [A,,A,]3- [A,,A,]2 [A,,E,]/[A,,E,]/ | %14
 [A,,A,]2 [A,,A,] [C,G,][C,G,][C,C] | [F,C]2 [E,C] [D,D]2 [D,A,] | %16
 [E,A,]<[E,A,][E,A,] [E,B,]<[E,G,]-[E,G,] | [A,,A,]3- [A,,A,]2 |] %18
V:4
 x | x6 | x6 | x6 | x5 E,/E,/ | x6 | x6 | x6 | E,3 x || x2 | x6 | x6 | x6 | x6 | x6 | x6 | x6 | %17
 x5 |] %18

